X:1
Q:1/4=160
T: Polka Lady
M:2/2
L:1/16
K:F
|:"Dm"d2f2 agf2|agf2 agf2|"A7"e2g4e2|"Dm"defga4|
"Dm"d2f2 agf2|agf2 agf2|"A7"e2g4e2|"Dm"d8:|
|:"F"c'2a4a2|c'2c'2 d'c'ba|"Gm"b2g4ga|b2b2 c'bag|
"Dm"a2f4a2|a2a2 bagf|"A7"e2g2 f2e2|[1"Dm"d^cde fefg:|[2"Dm"d8|]
%%begintext center
In memory of Zach Konowalchuk
%%endtext
